static/images/hero-seo/arrow.svg

<svg width="38" height="41" viewBox="0 0 38 41" fill="none" xmlns="http://www.w3.org/2000/svg">
<path d="M22.6025 19.9125L36.1205 34.8766L31.1567 39.3631L17.6345 24.4007L11.6599 34.4268L2.22405 2.35732L33.1795 14.9813L22.6025 19.9125Z" fill="#F6F6F1"/>
<path d="M29.5215 18.8295C29.3832 18.9198 29.1206 18.903 28.943 18.9785C28.1981 19.2936 27.8897 19.3409 27.206 19.6049C26.1922 19.9963 23.3457 21.5063 22.9753 20.7121C22.9753 20.7121 22.9753 20.7121 22.9753 20.712C22.9717 20.7043 22.9683 20.6963 22.9651 20.688C22.9048 20.5319 23.0758 20.2511 23.0329 20.0628C22.9898 19.8745 22.447 18.7822 22.7704 18.5558C23.2431 18.2357 24.6007 17.9478 24.8673 17.8082C25.0495 17.7127 25.232 17.5053 25.4619 17.3764C26.203 16.9609 26.6391 16.847 27.2038 16.2515C27.5476 16.2663 27.8914 16.2811 28.2352 16.2959C28.5652 16.0608 29.2009 15.9954 29.4154 15.8826C29.5914 15.7901 29.6438 15.6272 29.829 15.5345C30.0363 15.4299 30.4166 15.402 30.7907 15.2051C31.4042 14.8828 31.3775 14.5341 31.7363 14.321C31.975 14.1792 32.3413 14.0783 32.6919 13.9353L32.7437 16.0499C32.5519 15.9604 32.3537 15.8835 32.1557 15.8474C32.0783 15.8547 32.0008 15.862 31.9234 15.8693C31.9384 15.9634 31.9534 16.0574 31.9683 16.1515C31.6977 16.0821 31.6505 15.8826 31.4162 15.7837C31.1404 15.6674 30.9393 15.7562 30.7531 15.6795C30.6007 15.6165 30.4415 15.4146 30.2404 15.3412C29.9475 15.2336 29.9415 15.4289 29.7732 15.3973C29.7062 15.3844 28.5218 15.0105 28.4566 14.9855C27.962 14.7916 28.0139 14.542 27.63 14.3618C26.5649 13.8628 25.3719 13.5951 24.3369 13.2557C23.8747 13.1042 23.4115 12.8996 22.9787 12.6798C23.9266 12.3733 22.5537 11.2741 22.7585 12.442C22.3141 12.1065 21.8583 12.2134 21.4031 11.9783C21.1088 11.826 20.9499 11.6108 20.5122 11.4362C19.7352 11.1273 18.7388 11.1484 18.7862 10.3952C17.8297 10.1413 17.1405 9.57998 16.5745 10.0311C16.3255 9.97128 15.8669 9.37804 15.6233 9.22352C15.3929 9.07757 13.5495 8.1424 13.2411 8.00636C12.9326 7.87032 12.3902 7.638 12.1065 7.58212C11.7504 7.51095 11.2723 8.02327 10.9736 7.07451C10.2667 6.85314 10.0315 6.73354 9.42939 6.39192C9.32037 6.33009 9.35028 6.21952 9.28309 6.192C9.14458 6.13552 8.8772 6.11721 8.62609 6.02587C8.21318 5.87559 8.07147 5.55947 7.97883 5.91627C7.68765 5.86367 7.39647 5.81108 7.10529 5.75849C7.03788 5.65485 6.97047 5.5512 6.90307 5.44756C6.73073 5.46027 6.5584 5.47299 6.38607 5.4857C6.75404 5.06479 5.62756 4.94234 5.84051 5.35681C5.3622 5.04363 4.88389 4.73044 4.40557 4.41726C4.70499 3.89044 3.29085 3.88778 3.26964 4.23197C3.21036 4.20728 3.15108 4.18259 3.0918 4.15791C2.69642 3.84849 2.2515 3.75029 1.75734 3.50175L3.40973 2.00846C3.42841 2.09722 3.44475 2.18955 3.45751 2.28642C3.54806 2.97396 3.47378 2.92878 3.26744 3.20667C3.32814 3.35687 3.38883 3.50708 3.44953 3.65728C4.41522 4.25502 3.1145 4.48186 4.08101 5.7076C3.75481 6.28605 4.31684 7.31002 4.6689 7.99501C4.70984 8.07472 4.79894 8.05008 4.85938 8.15451C5.00604 8.41014 5.0985 9.14534 5.37747 9.03719C5.36618 9.30443 5.35489 9.57166 5.3436 9.83891C5.45402 10.0221 5.56444 10.2054 5.67486 10.3886C5.76385 10.3613 5.85285 10.334 5.94184 10.3068C5.75516 10.7961 6.05693 11.3898 6.07535 11.7211C6.07874 11.7871 5.9595 11.8367 5.9823 12.0382C6.00834 12.274 6.16762 12.6808 6.20769 12.959C6.37466 13.0227 6.54163 13.0863 6.7086 13.15C6.92307 13.6056 6.61232 13.8793 6.66683 14.1679C6.67681 14.2198 6.97363 15.1331 6.99592 15.1804C7.17638 15.5687 7.44931 15.3633 7.72925 16.5574C7.77892 16.7701 7.72254 16.9706 7.77391 17.1609C7.8645 17.4972 8.40141 18.4328 8.64717 18.4465C8.48793 18.9336 8.92068 19.9841 8.93417 20.327C8.93778 20.4307 8.76683 20.5046 8.81622 20.8119C8.85609 21.0611 9.18006 21.6377 9.2459 21.9492C9.31513 22.2801 9.2001 22.4394 9.23219 22.5873C9.26265 22.727 9.42005 22.8178 9.47422 23.0045C9.6413 23.5878 9.60281 24.1719 9.73462 24.633C9.9248 25.3001 10.4538 25.7831 10.7758 26.2933C10.7933 26.4382 10.7568 26.5965 10.7988 26.7416C11.3149 28.5371 11.8441 30.5781 12.2968 32.398C12.4018 32.8195 12.4861 33.5825 12.6241 34.1432L10.7966 33.9124C11.1156 33.4279 11.2479 33.0424 10.7379 33.0753C10.7662 32.7402 12.1825 31.0256 12.4009 30.669C12.6192 30.3126 12.6593 29.9508 12.8256 29.6674C13.3275 28.8124 13.7782 28.2682 14.2831 27.1644C14.4132 26.879 14.4308 26.5007 14.527 26.3432C14.6433 26.1537 14.9142 26.0366 15.0711 25.7948C15.4232 25.2497 15.9836 24.2127 16.3504 23.6355L17.4558 21.8919L18.7435 23.3984C18.7695 23.4289 18.7942 23.4583 18.8174 23.4864C18.8937 23.5796 18.8095 23.7126 18.8897 23.872C19.2014 24.4931 19.7167 25.0394 19.9869 24.6161C20.3585 25.4374 21.0771 25.8585 21.6219 26.4384C22.7731 27.6655 24.7439 30.0147 25.8774 30.9656C26.5922 31.5651 26.7375 31.4019 27.5107 32.5369C27.6823 32.7888 27.8423 33.0495 28.0511 33.3545C28.5402 34.0697 28.7707 34.9231 29.5682 35.0845C30.1145 35.876 30.6897 36.3798 30.8573 37.182C30.9868 37.1774 31.1163 37.1728 31.2458 37.1681C31.326 37.2532 31.4062 37.3383 31.4864 37.4234C31.4407 37.5139 31.395 37.6044 31.3493 37.6948C31.5727 37.9577 31.8738 38.2018 32.1838 38.4349L30.2283 38.336C30.5613 37.8932 30.8717 37.4322 31.1822 37.1538C32.0219 36.4004 34.2018 34.6138 35.2095 33.8687L35.1124 35.7872C35.0725 35.7332 35.0355 35.6825 35.0019 35.6356C34.6511 35.1462 34.4792 35.2581 34.5585 34.7247C34.4473 34.6448 34.3361 34.565 34.2249 34.4851C34.1011 34.484 33.9773 34.483 33.8535 34.482C33.3362 33.9147 32.8309 33.1441 32.3396 32.6024C31.4441 31.6155 29.9165 30.2988 29.1417 29.1952C28.9476 28.9184 28.8059 28.4811 28.5841 28.2387C28.2613 27.8858 27.9519 28.0087 27.5407 27.5622C26.8325 26.7924 25.7957 25.104 25.1124 24.3889C24.9096 24.1764 24.7316 24.1525 24.5865 24.0104C23.9771 23.4152 23.5162 22.8909 22.8366 22.4062C22.4716 21.5562 22.8087 21.3536 22.9158 20.8912C22.9961 20.5417 23.079 19.6173 23.21 19.3783C23.3021 19.2104 23.632 19.2286 23.7207 19.0298C24.5417 19.7015 24.7072 20.1457 25.0703 20.9654C26.1328 22.1249 27.1953 23.2845 28.2578 24.444C28.2731 24.623 28.2884 24.802 28.3037 24.9811C28.3035 24.9812 28.3033 24.9814 28.3031 24.9815C28.6149 25.5138 28.9942 25.5161 29.2597 25.7153C31.5072 27.4009 34.7082 31.4068 36.975 34.1046L37.7478 34.9128L36.8927 35.7309C36.5397 36.0277 36.2091 36.3084 35.909 36.569C35.3504 37.0542 33.6633 38.7764 33.1684 38.9859C33.0401 39.0399 32.9006 38.9401 32.792 39.0285C32.4621 39.3781 32.1322 39.7278 31.8024 40.0775L31.1265 40.7241L30.4422 40.0088C29.8804 39.4787 29.3186 38.9486 28.7567 38.4185C27.2275 36.3381 25.2874 34.512 23.5221 32.6186C21.2283 30.1582 18.9412 27.7135 16.6752 25.2677L18.7454 25.0626C16.937 28.1846 15.1202 31.2835 13.2697 34.3482C13.1232 34.5907 12.9736 34.8503 12.8217 35.1191L11.3019 37.7861L10.3625 34.8086C10.0151 33.7211 9.59646 32.5256 9.36802 31.5235C9.24668 30.9922 9.44084 30.6988 9.04677 30.0699C9.1142 30.0423 9.18162 30.0146 9.24905 29.987C8.98908 29.4135 8.71835 29.0777 8.50493 28.4118C8.32546 27.8509 7.87547 26.3597 7.7552 25.8528C7.69233 25.59 7.85065 25.6482 7.77899 25.4071C7.65532 24.9945 7.21591 24.1646 7.04815 23.5944C6.89619 23.0779 6.7897 22.1632 6.65117 21.7725C6.15345 20.3651 5.47324 18.8727 5.08432 17.3313C4.97728 16.9054 4.98646 16.3143 4.94297 16.1839C4.85741 15.9292 4.67116 15.9007 4.59922 15.7339C4.23436 14.8866 4.02588 13.4597 3.78019 12.5961C2.97963 9.78231 2.03343 6.83029 1.24132 4.02708C1.13413 3.64784 1.00899 3.21567 0.874999 2.75426L-4.33248e-05 2.83018e-05L2.75507 1.0552C4.38536 1.72679 6.39771 2.55074 7.59594 3.14831C7.92472 3.31232 7.7637 3.44852 8.04856 3.56469C8.36442 3.69346 8.58316 3.6463 8.73461 3.69703C9.78331 4.04752 12.0869 4.84912 13.0028 5.36201C13.1772 5.45988 13.2552 5.64985 13.3654 5.69423C13.421 5.71693 13.5846 5.67568 13.7632 5.7375C15.3408 6.2832 16.4442 6.79611 17.9436 7.4446C20.8156 8.68591 24.2419 9.88239 27.2467 11.2165C27.9014 11.5071 28.2466 11.9607 28.341 11.996C28.5477 12.0741 28.7523 11.947 29.1848 12.0714C30.5857 12.4762 32.3091 13.3881 33.6429 13.8451L36.242 14.8466L33.698 16.0934C33.6657 16.1107 33.6338 16.1281 33.6023 16.1455C32.9891 16.4846 32.2229 17.1147 31.6224 17.455C31.1429 17.7268 29.9257 18.1872 29.7509 18.3886C29.6443 18.5107 29.6712 18.7306 29.5215 18.8295ZM20.1088 11.0961C20.3266 10.821 19.2683 10.6918 19.5574 11.005C19.6225 11.0756 20.0523 11.1675 20.1088 11.0961ZM10.9384 29.3065C11.0281 29.2703 11.1178 29.2341 11.2074 29.1979C11.1309 29.0797 11.0544 28.9614 10.9778 28.8432C10.9437 28.9323 10.9097 29.0214 10.8756 29.1106C10.8965 29.1759 10.9175 29.2412 10.9384 29.3065Z" fill="#0BA6E2"/>
</svg>

<svg xmlns="http://www.w3.org/2000/svg" width="38" height="41" fill="none" viewBox="0 0 38 41"><path fill="#f6f6f1" d="m22.6 20 13.5 14.9-5 4.5-13.5-15-6 10-9.4-32 31 12.6z"/><path fill="#0ba6e2" d="m29.5 18.8-.6.2-1.7.6c-1 .4-3.9 2-4.2 1.1V20c0-.2-.6-1.3-.2-1.5.4-.4 1.8-.7 2-.8l.7-.4 1.7-1.1h1l1.2-.4.4-.4 1-.3c.6-.3.6-.7 1-.9l.9-.4V16l-.5-.2h-.3v.4l-.5-.4-.6-.1-.6-.4-.4.1-1.3-.4c-.5-.2-.5-.5-.9-.6q-1.6-.7-3.3-1.1l-1.3-.6c1-.3-.4-1.4-.2-.3l-1.4-.4-.9-.6c-.8-.3-1.8-.3-1.7-1-1-.3-1.7-.8-2.2-.4-.3 0-.7-.6-1-.8l-3.5-1.6c-.3 0-.8.4-1.1-.5l-1.6-.7-.1-.2-.7-.2c-.4-.1-.5-.4-.6 0l-1-.3v-.3h-.5c.4-.3-.8-.5-.6 0l-1.4-1c.3-.5-1.1-.5-1.1-.2H3l-1.3-.7L3.4 2v.3c.1.7 0 .6-.1 1l.1.4c1 .6-.3.8.7 2-.3.6.2 1.6.6 2.3l.2.2c.1.2.2 1 .5.8v.8l.3.6h.2q0 .7.2 1.3L6 12l.2 1q.3 0 .5.2v1l.3 1c.2.4.4.2.7 1.4v.6c.2.3.7 1.2 1 1.2-.2.5.2 1.6.2 2v.4l.3 1.1v.7l.3.4.2 1.6c.2.7.8 1.2 1 1.7l.1.4 1.5 5.7.3 1.7-1.8-.2q.5-.8 0-.8c0-.4 1.4-2 1.6-2.4l.4-1c.5-.9 1-1.4 1.5-2.5l.2-.9.6-.5 1.3-2.2 1-1.7 1.3 1.5h.1v.5q.7 1.1 1.2.7.6 1.1 1.6 1.8c1.2 1.3 3.1 3.6 4.3 4.6.7.6.8.4 1.6 1.5l.6.9q.4 1.2 1.5 1.7.8 1 1.3 2h.3l.3.3-.2.3.9.7h-2l1-1.2c.8-.8 3-2.6 4-3.3v1.9l-.2-.2c-.3-.5-.5-.3-.4-.9l-.4-.2H34l-1.6-1.9c-.9-1-2.4-2.3-3.2-3.4l-.5-1c-.3-.3-.6-.2-1-.6-.8-.8-1.8-2.5-2.5-3.2l-.5-.4q-.8-.9-1.8-1.6c-.3-.8 0-1 .1-1.5l.3-1.5.5-.4q1 .9 1.4 2l3.2 3.4v.6q.5.6 1 .7c2.2 1.7 5.4 5.7 7.7 8.4l.7.8-.8.8-1 .9c-.5.5-2.2 2.2-2.7 2.4h-.4l-1 1-.7.7-.7-.7-1.6-1.6q-2.5-3-5.3-5.8l-6.8-7.3 2-.2-5.9 10-1.5 2.7-1-3-1-3.3q.1-.6-.3-1.4l.2-.1-.7-1.6-.7-2.5v-.5L7 23.6l-.3-1.8q-.9-2.2-1.6-4.5l-.2-1.1q0-.3-.3-.5c-.4-.8-.6-2.2-.8-3.1L1.2 4 1 2.8 0 0l2.8 1 4.8 2.1.4.5.7.1L13 5.4q.3 0 .4.3h.4l4.1 1.7 9.3 3.8q1 .6 1.1.8h.9c1.4.5 3.1 1.4 4.4 1.8l2.6 1-2.5 1.3h-.1l-2 1.4c-.5.2-1.7.7-1.8.9zm-9.4-7.7c.2-.3-.8-.4-.5 0zM11 29.3l.3-.1-.2-.4-.1.3z"/></svg>
